images/facebook-icon.svg

<svg width="24" height="24" viewBox="0 0 24 24" fill="none" xmlns="http://www.w3.org/2000/svg">
<path d="M14.3333 9.33333V7.73333C14.3333 7.04 14.4933 6.66667 15.6133 6.66667H17V4H14.8667C12.2 4 11.1333 5.76 11.1333 7.73333V9.33333H9V12H11.1333V20H14.3333V12H16.68L17 9.33333H14.3333Z" fill="#595A7E"/>
</svg>

<svg xmlns="http://www.w3.org/2000/svg" width="24" height="24" fill="none"><path fill="#595A7E" d="M14.333 9.333v-1.6c0-.693.16-1.066 1.28-1.066H17V4h-2.133c-2.667 0-3.734 1.76-3.734 3.733v1.6H9V12h2.133v8h3.2v-8h2.347L17 9.333h-2.667Z"/></svg>
